public/svg/nextJs.svg

<svg width="24" height="24" viewBox="0 0 24 24" fill="none" xmlns="http://www.w3.org/2000/svg">
<path d="M6.37292 7.83306H11.4665V8.23552H6.84V11.2678H11.1905V11.6712H6.84V15.0007H11.52V15.4032H6.37292V7.83306ZM11.9234 7.83306H12.4643L14.8625 11.1626L17.3142 7.83306L20.6483 3.60352L15.1708 11.5115L17.9935 15.4032H17.4305L14.8625 11.8623L12.2834 15.4032H11.7323L14.5754 11.5115L11.9234 7.83306ZM18.1948 8.23552V7.83306H24V8.23552H21.3258V15.4032H20.8588V8.23552H18.1938H18.1948ZM0 7.83213H0.583385L8.63262 19.8192L5.30585 15.4032L0.487385 8.40536L0.467077 15.4032H0V7.83213Z" fill="#5E5F60"/>
</svg>

<svg xmlns="http://www.w3.org/2000/svg" width="24" height="24" fill="none" xmlns:v="https://vecta.io/nano"><path d="M6.373 7.833h5.094v.402H6.84v3.032h4.351v.403H6.84v3.329h4.68v.402H6.373v-7.57zm5.55 0h.541l2.398 3.33 2.452-3.33 3.334-4.23-5.477 7.908 2.823 3.892h-.563l-2.568-3.541-2.579 3.541h-.551l2.843-3.892-2.652-3.678zm6.271.402v-.402H24v.402h-2.674v7.168h-.467V8.236h-2.665.001zM0 7.832h.583l8.049 11.987-3.327-4.416L.487 8.405l-.02 6.998H0V7.832z" fill="#5e5f60"/></svg>
